dist/assets/images/card/icon-3.svg

<svg width="121" height="87" viewBox="0 0 121 87" fill="none" xmlns="http://www.w3.org/2000/svg">
<path d="M49 10H69.6072C73.745 10 77.8604 10.9538 81.3924 12.9966C83.8341 14.4103 86.1291 16.375 87 19" stroke="#DE1F26" stroke-miterlimit="10"/>
<path d="M88.733 22L85 20.5056L89 18L88.733 22Z" stroke="#DE1F26" stroke-miterlimit="10"/>
<path d="M100.735 50L97 47.6158L102 46L100.735 50Z" stroke="#DE1F26" stroke-miterlimit="10"/>
<path d="M84.7882 72L83 79.8218L84.8711 77.4853L87 80L84.7882 72Z" stroke="#DE1F26" stroke-miterlimit="10"/>
<path d="M85.1954 65V59.2016L85.1515 57.7605C85.1515 57.7605 86.93 57.0187 86.6485 55.4565C86.3993 54.0731 85.1954 52.334 85.1954 52.334V46.1646V46C90.0656 46.124 94 50.3592 94 55.5C94 60.7638 89.9867 65 85 65" fill="#DD1F26"/>
<path d="M84.4995 67C90.8374 67 96 61.8374 96 55.5005C96 49.1626 90.8374 44 84.4995 44C78.1626 44 73 49.1626 73 55.5005C72.999 61.8374 78.1626 67 84.4995 67Z" stroke="#0000BD" stroke-miterlimit="10"/>
<path d="M84.9995 57C86.107 57 87 56.106 87 55.0005C87 53.893 86.107 53 84.9995 53C83.893 53 83 53.893 83 55.0005C83.0421 56.107 83.893 57 84.9995 57Z" stroke="#0000BD" stroke-miterlimit="10"/>
<path d="M84.7058 46H84.4995C79.2355 46 75 50.2362 75 55.5C75 60.7638 79.2364 65 84.4995 65C89.7636 65 94 60.7638 94 55.5C94.0009 50.3592 89.8468 46.123 84.7058 46ZM84.7058 46V46.1646V52.333V53.5262" stroke="#0000BD" stroke-miterlimit="10"/>
<path d="M85 65V58.9032V57" stroke="#0000BD" stroke-miterlimit="10"/>
<path d="M96 55H98" stroke="#0000BD" stroke-miterlimit="10"/>
<path d="M73 55H70" stroke="#0000BD" stroke-miterlimit="10"/>
<path d="M85 44V42" stroke="#0000BD" stroke-miterlimit="10"/>
<path d="M85 67V69" stroke="#0000BD" stroke-miterlimit="10"/>
<path d="M86 36C86 36 98.3997 38.9993 100 47" stroke="#DE1F26" stroke-miterlimit="10"/>
<path d="M120 1H1V86H120V1Z" stroke="#DE1F26" stroke-miterlimit="10"/>
<path d="M72 35C76.9706 35 81 30.9706 81 26C81 21.0294 76.9706 17 72 17C67.0295 17 63 21.0294 63 26C63 30.9706 67.0295 35 72 35Z" stroke="#0000BD" stroke-miterlimit="10"/>
<path d="M17 37H71.2598C74.5644 37 82 34.7655 82 26C82 19.9255 77.1909 15 71.2598 15H17.6588" stroke="#0000BD" stroke-miterlimit="10"/>
<path d="M72 28C73.1046 28 74 27.1046 74 26C74 24.8954 73.1046 24 72 24C70.8954 24 70 24.8954 70 26C70 27.1046 70.8954 28 72 28Z" stroke="#0000BD" stroke-miterlimit="10"/>
</svg>

<svg width="121" height="87" fill="none" xmlns="http://www.w3.org/2000/svg"><path d="M49 10h20.607c4.138 0 8.253.954 11.785 2.997C83.834 14.41 86.13 16.375 87 19m1.733 3L85 20.506 89 18l-.267 4zm12.002 28L97 47.616 102 46l-1.265 4zM84.788 72L83 79.822l1.871-2.337L87 80l-2.212-8z" stroke="#DE1F26" stroke-miterlimit="10"/><path d="M85.195 65v-5.798l-.043-1.441s1.778-.742 1.496-2.305c-.249-1.383-1.453-3.122-1.453-3.122V46c4.87.124 8.805 4.36 8.805 9.5 0 5.264-4.013 9.5-9 9.5" fill="#DD1F26"/><path d="M84.5 67C90.837 67 96 61.837 96 55.5S90.837 44 84.5 44 73 49.163 73 55.5C72.999 61.838 78.163 67 84.5 67z" stroke="#0000BD" stroke-miterlimit="10"/><path d="M85 57c1.107 0 2-.894 2-2 0-1.107-.893-2-2-2s-2 .893-2 2c.042 1.107.893 2 2 2z" stroke="#0000BD" stroke-miterlimit="10"/><path d="M84.706 46h-.207A9.478 9.478 0 0075 55.5c0 5.264 4.236 9.5 9.5 9.5s9.5-4.236 9.5-9.5c0-5.14-4.153-9.377-9.294-9.5zm0 0v7.526M85 65v-8m11-2h2m-25 0h-3m15-11v-2m0 25v2" stroke="#0000BD" stroke-miterlimit="10"/><path d="M86 36s12.4 3 14 11m20-46H1v85h119V1z" stroke="#DE1F26" stroke-miterlimit="10"/><path d="M72 35a9 9 0 100-18 9 9 0 000 18z" stroke="#0000BD" stroke-miterlimit="10"/><path d="M17 37h54.26C74.564 37 82 34.766 82 26c0-6.075-4.81-11-10.74-11H17.659" stroke="#0000BD" stroke-miterlimit="10"/><path d="M72 28a2 2 0 100-4 2 2 0 000 4z" stroke="#0000BD" stroke-miterlimit="10"/></svg>
